src/assets/alert-warning-triangle.svg

<svg width="45" height="45" viewBox="0 0 34 29" fill="none" xmlns="http://www.w3.org/2000/svg">
<g clip-path="url(#clip0_644_5777)">
<path d="M14.4171 1.37208C15.5782 -0.59334 18.4218 -0.593332 19.5829 1.37209L33.3787 24.7241C34.5602 26.7239 33.1186 29.25 30.7958 29.25H3.20419C0.881423 29.25 -0.560206 26.7239 0.621259 24.7241L14.4171 1.37208Z" fill="#FDA302"/>
<path d="M18.8454 8.75513C18.8454 7.67108 18.0508 7 17 7C15.974 7 15.1538 7.69689 15.1538 8.75513V18.6947C15.1538 19.753 15.974 20.4499 17 20.4499C18.0508 20.4499 18.8454 19.778 18.8454 18.6947V8.75513ZM19 23.9859C18.9991 23.4521 18.7881 22.9404 18.4132 22.563C18.0383 22.1857 17.5301 21.9734 17 21.9727C16.4699 21.9734 15.9617 22.1857 15.5868 22.563C15.2119 22.9404 15.0009 23.4521 15 23.9859C15.0007 24.5199 15.2116 25.0318 15.5865 25.4094C15.9614 25.7869 16.4698 25.9993 17 26C17.5302 25.9993 18.0386 25.7869 18.4135 25.4094C18.7884 25.0318 18.9993 24.5199 19 23.9859Z" fill="white"/>
</g>
<defs>
<clipPath id="clip0_644_5777">
<rect width="34" height="29" fill="white"/>
</clipPath>
</defs>
</svg>

<svg width="45" height="45" viewBox="0 0 34 29" fill="none" xmlns="http://www.w3.org/2000/svg"><g clip-path="url(#clip0_644_5777)"><path d="M14.417 1.372c1.161-1.965 4.005-1.965 5.166 0l13.796 23.352c1.181 2-.26 4.526-2.583 4.526H3.204c-2.323 0-3.764-2.526-2.583-4.526L14.417 1.372z" fill="#FDA302"/><path d="M18.845 8.755C18.845 7.671 18.051 7 17 7c-1.026 0-1.846.697-1.846 1.755v9.94c0 1.058.82 1.755 1.846 1.755 1.05 0 1.845-.672 1.845-1.755v-9.94zM19 23.985c0-.533-.212-1.045-.587-1.422a1.996 1.996 0 00-1.413-.59c-.53 0-1.038.213-1.413.59a2.024 2.024 0 000 2.846c.374.378.883.59 1.413.591.53 0 1.039-.213 1.413-.59.375-.378.586-.89.587-1.424z" fill="#fff"/></g><defs><clipPath id="clip0_644_5777"><path fill="#fff" d="M0 0h34v29H0z"/></clipPath></defs></svg>
